X:314
M:C|
L:1/8
K:G Minor
d|gaba agfd|cdfg agfa|gaba agfd|cAfA G<G G:|
c|B/c/d BG BdgB|A/B/c AF Acfc|B/c/d BG GdgB|cAfA G<G Gc|

